assets/skill/front-react.svg

<svg width="58" height="57" viewBox="0 0 58 57" fill="none" xmlns="http://www.w3.org/2000/svg">
<rect x="0.627441" width="56.7516" height="56.7516" rx="8.25478" fill="url(#paint0_linear_92_661)"/>
<path d="M29.0032 32.5033C31.2827 32.5033 33.1306 30.6554 33.1306 28.3759C33.1306 26.0964 31.2827 24.2485 29.0032 24.2485C26.7237 24.2485 24.8759 26.0964 24.8759 28.3759C24.8759 30.6554 26.7237 32.5033 29.0032 32.5033Z" fill="#00D8FF"/>
<path d="M29.0033 37.6491C24.1309 37.7673 19.2708 37.1088 14.6046 35.6982C12.449 35.0131 10.4386 33.9339 8.67483 32.515C8.0018 32.0303 7.44133 31.4054 7.03186 30.6831C6.62239 29.9608 6.37362 29.1582 6.30261 28.3304C6.30261 25.6431 9.24721 23.0094 14.1797 21.2861C18.9708 19.7591 23.9766 19.0191 29.0033 19.0946C33.9629 19.0251 38.9016 19.7518 43.6322 21.2471C45.7081 21.9106 47.6504 22.9377 49.369 24.2807C50.0305 24.7428 50.5826 25.3451 50.9861 26.0449C51.3896 26.7448 51.6346 27.525 51.7039 28.3304C51.7039 31.1234 48.4123 33.9538 43.1101 35.7129C38.5342 37.0775 33.7766 37.7305 29.0033 37.6491ZM29.0033 21.039C24.1941 20.9745 19.4055 21.6781 14.817 23.1232C10.2768 24.7115 8.2419 26.8835 8.2419 28.3255C8.2419 29.8342 10.4293 32.2062 15.2321 33.853C19.6961 35.1956 24.3441 35.8206 29.0033 35.7047C33.57 35.7866 38.1223 35.1671 42.502 33.8677C47.4881 32.211 49.7581 29.8358 49.7581 28.3304C49.6763 27.8138 49.4885 27.3198 49.2067 26.8796C48.9248 26.4395 48.5549 26.0627 48.1204 25.7731C46.5829 24.5817 44.8478 23.6714 42.9949 23.0842C38.4695 21.6596 33.746 20.9692 29.0033 21.039Z" fill="#00D8FF"/>
<path d="M19.8027 48.4958C19.0454 48.5131 18.2971 48.3302 17.6339 47.9657C15.3093 46.6309 14.5042 42.7816 15.4798 37.6669C16.5555 32.7722 18.4193 28.0829 20.9991 23.7806C23.419 19.4644 26.517 15.5615 30.1757 12.2197C31.7879 10.7567 33.6478 9.58972 35.669 8.77276C36.4001 8.43169 37.1976 8.25488 38.005 8.25488C38.8123 8.25488 39.6098 8.43169 40.3409 8.77276C42.758 10.1593 43.5583 14.4062 42.4301 19.8569C41.3212 24.4861 39.5058 28.9186 37.0472 32.9999C34.7124 37.2651 31.712 41.1341 28.1579 44.4622C26.4872 45.9826 24.5482 47.1819 22.439 47.9997C21.5945 48.3117 20.7032 48.4794 19.8027 48.4958ZM22.6808 24.7405C20.22 28.8602 18.4337 33.3437 17.3888 38.0225C16.4911 42.7331 17.3531 45.566 18.6063 46.2867C19.9049 47.0349 23.0574 46.3255 26.8852 42.9965C30.278 39.8081 33.1419 36.1046 35.3703 32.0239C37.7256 28.122 39.4671 23.8843 40.5341 19.4578C41.5957 14.327 40.6786 11.1855 39.3767 10.4389C38.8887 10.2527 38.3673 10.1694 37.8453 10.1942C37.3234 10.2189 36.8123 10.3512 36.3443 10.5827C34.5451 11.3218 32.8911 12.371 31.4581 13.6822C27.9626 16.8832 25.0033 20.6196 22.6922 24.7502L22.6808 24.7405Z" fill="#00D8FF"/>
<path d="M38.1715 48.4958C35.9758 48.4958 33.187 47.1695 30.2832 44.6771C26.567 41.302 23.4222 37.3492 20.9705 32.9719C18.4276 28.7251 16.5818 24.0996 15.5031 19.2708C15.0353 17.1463 14.9486 14.9558 15.2471 12.8011C15.3161 12.0018 15.5599 11.2273 15.9614 10.5323C16.3629 9.8373 16.9123 9.23866 17.5708 8.77861C19.9804 7.38602 24.0688 8.81743 28.2414 12.5148C31.7101 15.7855 34.6558 19.5679 36.9756 23.73C39.5169 27.8776 41.3821 32.4018 42.5013 37.1335C42.9893 39.3359 43.0645 41.6095 42.7233 43.8393C42.6421 44.6616 42.3837 45.4566 41.9659 46.1699C41.548 46.8832 40.9805 47.4979 40.3024 47.9718C39.6512 48.332 38.9158 48.5129 38.1715 48.4958ZM22.6476 31.9982C24.9996 36.1815 28.0037 39.9645 31.5471 43.2053C35.1915 46.335 38.0824 47.0078 39.3252 46.2783C40.6216 45.5262 41.5777 42.4564 40.5924 37.4893C39.513 32.9718 37.7241 28.6532 35.292 24.694C33.0782 20.7105 30.2665 17.0887 26.9548 13.9543C23.0268 10.4737 19.841 9.69569 18.543 10.4462C18.1385 10.7743 17.8065 11.1826 17.568 11.6453C17.3296 12.108 17.1898 12.615 17.1576 13.1343C16.8999 15.0559 16.9839 17.0079 17.4055 18.9004C18.4431 23.5183 20.2133 27.9411 22.6493 32.0014L22.6476 31.9982Z" fill="#00D8FF"/>
<defs>
<linearGradient id="paint0_linear_92_661" x1="29.0032" y1="0" x2="29.0032" y2="56.7516" gradientUnits="userSpaceOnUse">
<stop stop-color="#FDFDFD"/>
<stop offset="1" stop-color="#F5F4F4"/>
</linearGradient>
</defs>
</svg>

<svg xmlns="http://www.w3.org/2000/svg" width="58" height="57" fill="none" viewBox="0 0 58 57"><rect width="56.752" height="56.752" x=".627" fill="url(#paint0_linear_92_661)" rx="8.255"/><path fill="#00d8ff" d="M29.003 32.503a4.127 4.127 0 1 0 0-8.255 4.127 4.127 0 0 0 0 8.255"/><path fill="#00d8ff" d="M29.003 37.65a45.9 45.9 0 0 1-14.398-1.952 18.3 18.3 0 0 1-5.93-3.183 5.76 5.76 0 0 1-2.372-4.185c0-2.687 2.944-5.32 7.877-7.044a46.5 46.5 0 0 1 14.823-2.191 46.4 46.4 0 0 1 14.63 2.152 18.4 18.4 0 0 1 5.736 3.034 5.5 5.5 0 0 1 2.335 4.05c0 2.792-3.292 5.623-8.594 7.382a46.6 46.6 0 0 1-14.107 1.936m0-16.611a45.2 45.2 0 0 0-14.186 2.084c-4.54 1.588-6.575 3.76-6.575 5.203 0 1.508 2.187 3.88 6.99 5.527a44 44 0 0 0 13.771 1.852 44.6 44.6 0 0 0 13.499-1.837c4.986-1.657 7.256-4.032 7.256-5.538a3.8 3.8 0 0 0-1.638-2.557 16.5 16.5 0 0 0-5.125-2.689 44.4 44.4 0 0 0-13.992-2.045"/><path fill="#00d8ff" d="M19.803 48.496a4.3 4.3 0 0 1-2.17-.53c-2.324-1.335-3.129-5.184-2.153-10.3A46.4 46.4 0 0 1 21 23.782a46.4 46.4 0 0 1 9.176-11.561 18.5 18.5 0 0 1 5.493-3.447 5.53 5.53 0 0 1 4.672 0c2.417 1.386 3.217 5.633 2.09 11.084A46.4 46.4 0 0 1 37.046 33a45.9 45.9 0 0 1-8.89 11.462A18.4 18.4 0 0 1 22.44 48a8 8 0 0 1-2.636.496M22.68 24.74a45 45 0 0 0-5.292 13.282c-.898 4.71-.036 7.543 1.217 8.264 1.299.748 4.451.038 8.28-3.29a44 44 0 0 0 8.484-10.973 44.5 44.5 0 0 0 5.164-12.566c1.062-5.131.145-8.272-1.157-9.02a3.8 3.8 0 0 0-3.033.145 16.5 16.5 0 0 0-4.886 3.1 44.4 44.4 0 0 0-8.766 11.067z"/><path fill="#00d8ff" d="M38.172 48.496c-2.196 0-4.985-1.327-7.889-3.819a46.5 46.5 0 0 1-9.312-11.705 46.3 46.3 0 0 1-5.468-13.701 18.4 18.4 0 0 1-.256-6.47 5.48 5.48 0 0 1 2.324-4.022c2.41-1.393 6.498.038 10.67 3.736a46.6 46.6 0 0 1 8.735 11.215A45.9 45.9 0 0 1 42.5 37.133c.488 2.203.564 4.476.222 6.706a5.72 5.72 0 0 1-2.42 4.133 4.2 4.2 0 0 1-2.131.524M22.648 31.998a45.2 45.2 0 0 0 8.9 11.207c3.643 3.13 6.534 3.803 7.777 3.073 1.297-.752 2.253-3.822 1.267-8.789a44 44 0 0 0-5.3-12.795 44.7 44.7 0 0 0-8.337-10.74c-3.928-3.48-7.114-4.258-8.412-3.508a3.77 3.77 0 0 0-1.385 2.688 16.5 16.5 0 0 0 .247 5.766 44.4 44.4 0 0 0 5.244 13.101z"/><defs><linearGradient id="paint0_linear_92_661" x1="29.003" x2="29.003" y1="0" y2="56.752" gradientUnits="userSpaceOnUse"><stop stop-color="#fdfdfd"/><stop offset="1" stop-color="#f5f4f4"/></linearGradient></defs></svg>
